svg/color/btt.svg

<?xml version="1.0" encoding="UTF-8" ?>
<!DOCTYPE svg PUBLIC "-//W3C//DTD SVG 1.1//EN" "http://www.w3.org/Graphics/SVG/1.1/DTD/svg11.dtd">
<svg width="250pt" height="250pt" viewBox="0 0 250 250" version="1.1" xmlns="http://www.w3.org/2000/svg">
<g id="#ffffffff">
<path fill="#ffffff" opacity="1.00" d=" M 0.00 0.00 L 121.50 0.00 C 93.04 0.92 64.90 11.65 43.38 30.36 C 16.94 52.83 1.03 86.87 0.00 121.49 L 0.00 0.00 Z" />
<path fill="#ffffff" opacity="1.00" d=" M 128.50 0.00 L 250.00 0.00 L 250.00 121.50 C 248.95 86.17 232.39 51.45 205.00 28.99 C 183.69 11.13 156.26 0.90 128.50 0.00 Z" />
<path fill="#ffffff" opacity="1.00" d=" M 107.49 16.97 C 139.47 11.76 173.64 21.47 197.68 43.31 C 226.08 67.98 239.65 108.03 232.57 144.92 C 228.20 168.87 215.54 191.19 197.15 207.15 C 170.64 230.97 131.90 240.12 97.53 230.81 C 72.21 224.58 49.70 208.43 34.91 187.04 C 16.34 160.47 10.75 125.36 20.06 94.32 C 26.85 70.05 42.79 48.68 63.54 34.51 C 76.62 25.41 91.85 19.72 107.49 16.97 M 58.32 81.32 C 46.10 96.13 38.46 114.77 37.27 133.96 C 35.79 156.67 43.38 179.71 57.52 197.47 C 63.00 204.51 70.65 209.35 78.39 213.54 C 92.39 220.85 108.15 225.19 124.01 224.77 C 131.80 224.65 140.00 225.03 147.33 222.01 C 133.37 221.69 119.29 219.71 106.20 214.66 C 90.39 208.81 76.43 197.92 67.18 183.80 C 55.36 166.01 51.23 143.25 56.29 122.48 C 60.63 103.53 72.90 86.65 89.41 76.43 C 101.86 68.35 116.74 65.08 131.41 64.58 C 131.38 58.99 131.46 53.39 131.35 47.80 C 103.71 47.67 75.82 59.66 58.32 81.32 M 101.24 76.31 C 82.12 84.77 66.95 101.94 61.32 122.13 C 56.93 136.65 57.50 152.49 62.44 166.80 C 69.83 188.71 88.74 205.45 110.30 212.92 C 121.85 216.49 133.89 218.75 146.01 218.77 C 150.16 218.73 154.42 219.91 158.45 218.47 C 166.83 215.59 174.93 211.70 182.02 206.36 C 160.70 210.35 138.03 209.14 117.79 201.02 C 99.64 193.61 83.98 178.82 78.06 159.84 C 75.01 150.11 74.40 139.60 76.90 129.67 C 80.66 113.22 92.41 98.77 107.84 91.89 C 121.88 85.19 138.46 85.51 152.86 90.94 C 155.28 85.89 157.72 80.84 159.89 75.67 C 150.37 71.92 140.17 69.82 129.95 69.74 C 120.12 70.31 110.21 72.10 101.24 76.31 M 107.63 97.66 C 94.22 104.67 84.38 117.96 81.34 132.75 C 78.69 144.24 80.57 156.59 86.01 167.00 C 93.96 182.33 108.37 193.66 124.33 199.78 C 133.10 203.40 142.64 204.50 152.02 205.24 C 163.30 205.78 174.71 205.67 185.82 203.44 C 187.99 203.13 189.50 201.41 191.06 200.05 C 194.97 196.35 199.00 192.71 202.17 188.32 C 197.43 188.14 192.74 188.79 188.06 189.32 C 170.52 189.82 152.57 190.77 135.53 185.75 C 120.60 181.30 106.47 171.40 100.02 156.84 C 93.49 142.11 99.06 123.31 112.55 114.50 C 122.93 107.19 137.43 106.33 148.59 112.36 C 154.75 115.32 159.18 120.64 163.11 126.04 C 168.32 124.45 172.79 121.14 177.89 119.26 C 177.63 118.21 177.45 117.12 176.85 116.20 C 170.57 106.10 160.79 98.24 149.54 94.33 C 135.91 89.69 120.32 90.73 107.63 97.66 Z" />
<path fill="#ffffff" opacity="1.00" d=" M 0.00 128.50 C 1.05 163.59 17.38 198.09 44.46 220.54 C 65.83 238.70 93.50 249.10 121.50 250.00 L 0.00 250.00 L 0.00 128.50 Z" />
<path fill="#ffffff" opacity="1.00" d=" M 220.55 205.54 C 238.70 184.17 249.09 156.50 250.00 128.51 L 250.00 250.00 L 128.50 250.00 C 163.59 248.95 198.10 232.62 220.55 205.54 Z" />
</g>
<g id="#000000ff">
<path fill="#000000" opacity="1.00" d=" M 121.50 0.00 L 128.50 0.00 C 156.26 0.90 183.69 11.13 205.00 28.99 C 232.39 51.45 248.95 86.17 250.00 121.50 L 250.00 128.51 C 249.09 156.50 238.70 184.17 220.55 205.54 C 198.10 232.62 163.59 248.95 128.50 250.00 L 121.50 250.00 C 93.50 249.10 65.83 238.70 44.46 220.54 C 17.38 198.09 1.05 163.59 0.00 128.50 L 0.00 121.49 C 1.03 86.87 16.94 52.83 43.38 30.36 C 64.90 11.65 93.04 0.92 121.50 0.00 M 107.49 16.97 C 91.85 19.72 76.62 25.41 63.54 34.51 C 42.79 48.68 26.85 70.05 20.06 94.32 C 10.75 125.36 16.34 160.47 34.91 187.04 C 49.70 208.43 72.21 224.58 97.53 230.81 C 131.90 240.12 170.64 230.97 197.15 207.15 C 215.54 191.19 228.20 168.87 232.57 144.92 C 239.65 108.03 226.08 67.98 197.68 43.31 C 173.64 21.47 139.47 11.76 107.49 16.97 Z" />
<path fill="#000000" opacity="1.00" d=" M 58.32 81.32 C 75.82 59.66 103.71 47.67 131.35 47.80 C 131.46 53.39 131.38 58.99 131.41 64.58 C 116.74 65.08 101.86 68.35 89.41 76.43 C 72.90 86.65 60.63 103.53 56.29 122.48 C 51.23 143.25 55.36 166.01 67.18 183.80 C 76.43 197.92 90.39 208.81 106.20 214.66 C 119.29 219.71 133.37 221.69 147.33 222.01 C 140.00 225.03 131.80 224.65 124.01 224.77 C 108.15 225.19 92.39 220.85 78.39 213.54 C 70.65 209.35 63.00 204.51 57.52 197.47 C 43.38 179.71 35.79 156.67 37.27 133.96 C 38.46 114.77 46.10 96.13 58.32 81.32 Z" />
<path fill="#000000" opacity="1.00" d=" M 101.24 76.31 C 110.21 72.10 120.12 70.31 129.95 69.74 C 140.17 69.82 150.37 71.92 159.89 75.67 C 157.72 80.84 155.28 85.89 152.86 90.94 C 138.46 85.51 121.88 85.19 107.84 91.89 C 92.41 98.77 80.66 113.22 76.90 129.67 C 74.40 139.60 75.01 150.11 78.06 159.84 C 83.98 178.82 99.64 193.61 117.79 201.02 C 138.03 209.14 160.70 210.35 182.02 206.36 C 174.93 211.70 166.83 215.59 158.45 218.47 C 154.42 219.91 150.16 218.73 146.01 218.77 C 133.89 218.75 121.85 216.49 110.30 212.92 C 88.74 205.45 69.83 188.71 62.44 166.80 C 57.50 152.49 56.93 136.65 61.32 122.13 C 66.95 101.94 82.12 84.77 101.24 76.31 Z" />
<path fill="#000000" opacity="1.00" d=" M 107.63 97.66 C 120.32 90.73 135.91 89.69 149.54 94.33 C 160.79 98.24 170.57 106.10 176.85 116.20 C 177.45 117.12 177.63 118.21 177.89 119.26 C 172.79 121.14 168.32 124.45 163.11 126.04 C 159.18 120.64 154.75 115.32 148.59 112.36 C 137.43 106.33 122.93 107.19 112.55 114.50 C 99.06 123.31 93.49 142.11 100.02 156.84 C 106.47 171.40 120.60 181.30 135.53 185.75 C 152.57 190.77 170.52 189.82 188.06 189.32 C 192.74 188.79 197.43 188.14 202.17 188.32 C 199.00 192.71 194.97 196.35 191.06 200.05 C 189.50 201.41 187.99 203.13 185.82 203.44 C 174.71 205.67 163.30 205.78 152.02 205.24 C 142.64 204.50 133.10 203.40 124.33 199.78 C 108.37 193.66 93.96 182.33 86.01 167.00 C 80.57 156.59 78.69 144.24 81.34 132.75 C 84.38 117.96 94.22 104.67 107.63 97.66 Z" />
</g>
</svg>

<?xml version="1.0" encoding="utf-8"?>
<!-- Generator: Adobe Illustrator 26.0.3, SVG Export Plug-In . SVG Version: 6.00 Build 0)  -->
<svg version="1.1" id="Layer_1" xmlns="http://www.w3.org/2000/svg" xmlns:xlink="http://www.w3.org/1999/xlink" x="0px" y="0px"
	 viewBox="0 0 250 250" style="enable-background:new 0 0 250 250;" xml:space="preserve">
<style type="text/css">
	.st0{fill:#FFFFFF;}
</style>
<g id="_x23_ffffffff">
	<path class="st0" d="M107.5,17c32-5.2,66.2,4.5,90.2,26.3c28.4,24.7,42,64.7,34.9,101.6c-4.4,23.9-17,46.3-35.4,62.2
		c-26.5,23.8-65.2,33-99.6,23.7c-25.3-6.2-47.8-22.4-62.6-43.8c-18.6-26.6-24.2-61.7-14.9-92.7c6.8-24.3,22.7-45.6,43.5-59.8
		C76.6,25.4,91.8,19.7,107.5,17 M58.3,81.3c-12.2,14.8-19.9,33.4-21,52.6c-1.5,22.7,6.1,45.8,20.2,63.5c5.5,7,13.1,11.9,20.9,16.1
		c14,7.3,29.8,11.7,45.6,11.2c7.8-0.1,16,0.3,23.3-2.8c-14-0.3-28-2.3-41.1-7.3c-15.8-5.9-29.8-16.7-39-30.9
		c-11.8-17.8-16-40.6-10.9-61.3c4.3-19,16.6-35.8,33.1-46.1c12.4-8.1,27.3-11.3,42-11.8c0-5.6,0.1-11.2-0.1-16.8
		C103.7,47.7,75.8,59.7,58.3,81.3 M101.2,76.3c-19.1,8.5-34.3,25.6-39.9,45.8c-4.4,14.5-3.8,30.4,1.1,44.7
		c7.4,21.9,26.3,38.6,47.9,46.1c11.5,3.6,23.6,5.8,35.7,5.9c4.2,0,8.4,1.1,12.4-0.3c8.4-2.9,16.5-6.8,23.6-12.1
		c-21.3,4-44,2.8-64.2-5.3c-18.2-7.4-33.8-22.2-39.7-41.2c-3-9.7-3.7-20.2-1.2-30.2c3.8-16.4,15.5-30.9,30.9-37.8
		c14-6.7,30.6-6.4,45-0.9c2.4-5.1,4.9-10.1,7-15.3c-9.5-3.8-19.7-5.8-29.9-5.9C120.1,70.3,110.2,72.1,101.2,76.3 M107.6,97.7
		c-13.4,7-23.2,20.3-26.3,35.1c-2.6,11.5-0.8,23.8,4.7,34.2c7.9,15.3,22.4,26.7,38.3,32.8c8.8,3.6,18.3,4.7,27.7,5.5
		c11.3,0.5,22.7,0.4,33.8-1.8c2.2-0.3,3.7-2,5.2-3.4c3.9-3.7,7.9-7.3,11.1-11.7c-4.7-0.2-9.4,0.5-14.1,1
		c-17.5,0.5-35.5,1.4-52.5-3.6c-14.9-4.4-29.1-14.4-35.5-28.9c-6.5-14.7-1-33.5,12.5-42.3c10.4-7.3,24.9-8.2,36-2.1
		c6.2,3,10.6,8.3,14.5,13.7c5.2-1.6,9.7-4.9,14.8-6.8c-0.3-1.1-0.4-2.1-1-3.1c-6.3-10.1-16.1-18-27.3-21.9
		C135.9,89.7,120.3,90.7,107.6,97.7z"/>
</g>
<g id="_x23_000000ff">
	<path d="M121.5,0h7c27.8,0.9,55.2,11.1,76.5,29c27.4,22.5,43.9,57.2,45,92.5v7c-0.9,28-11.3,55.7-29.4,77
		c-22.4,27.1-57,43.4-92.1,44.5h-7c-28-0.9-55.7-11.3-77-29.5C17.4,198.1,1,163.6,0,128.5v-7c1-34.6,16.9-68.7,43.4-91.1
		C64.9,11.6,93,0.9,121.5,0 M107.5,17c-15.6,2.8-30.9,8.4-43.9,17.5C42.8,48.7,26.9,70.1,20.1,94.3c-9.3,31-3.7,66.2,14.9,92.7
		c14.8,21.4,37.3,37.5,62.6,43.8c34.4,9.3,73.1,0.2,99.6-23.7c18.4-16,31.1-38.3,35.4-62.2c7.1-36.9-6.5-76.9-34.9-101.6
		C173.6,21.5,139.5,11.8,107.5,17z"/>
	<path d="M58.3,81.3c17.5-21.7,45.4-33.7,73-33.5c0.1,5.6,0,11.2,0.1,16.8c-14.7,0.5-29.6,3.8-42,11.8
		c-16.5,10.2-28.8,27.1-33.1,46.1c-5.1,20.8-0.9,43.5,10.9,61.3c9.2,14.1,23.2,25,39,30.9c13.1,5.1,27.2,7,41.1,7.3
		c-7.3,3-15.5,2.6-23.3,2.8c-15.9,0.4-31.6-3.9-45.6-11.2c-7.7-4.2-15.4-9-20.9-16.1c-14.1-17.8-21.7-40.8-20.2-63.5
		C38.5,114.8,46.1,96.1,58.3,81.3z"/>
	<path d="M101.2,76.3c9-4.2,18.9-6,28.7-6.6c10.2,0.1,20.4,2.2,29.9,5.9c-2.2,5.2-4.6,10.2-7,15.3c-14.4-5.4-31-5.8-45,0.9
		c-15.4,6.9-27.2,21.3-30.9,37.8c-2.5,9.9-1.9,20.4,1.2,30.2c5.9,19,21.6,33.8,39.7,41.2c20.2,8.1,42.9,9.3,64.2,5.3
		c-7.1,5.3-15.2,9.2-23.6,12.1c-4,1.4-8.3,0.3-12.4,0.3c-12.1,0-24.2-2.3-35.7-5.9c-21.6-7.5-40.5-24.2-47.9-46.1
		c-4.9-14.3-5.5-30.2-1.1-44.7C66.9,101.9,82.1,84.8,101.2,76.3z"/>
	<path d="M107.6,97.7c12.7-6.9,28.3-8,41.9-3.3c11.2,3.9,21,11.8,27.3,21.9c0.6,0.9,0.8,2,1,3.1c-5.1,1.9-9.6,5.2-14.8,6.8
		c-3.9-5.4-8.4-10.7-14.5-13.7c-11.2-6-25.7-5.2-36,2.1c-13.5,8.8-19.1,27.6-12.5,42.3c6.5,14.6,20.6,24.5,35.5,28.9
		c17,5,35,4.1,52.5,3.6c4.7-0.5,9.4-1.2,14.1-1c-3.2,4.4-7.2,8-11.1,11.7c-1.6,1.4-3.1,3.1-5.2,3.4c-11.1,2.2-22.5,2.3-33.8,1.8
		c-9.4-0.7-18.9-1.8-27.7-5.5c-16-6.1-30.4-17.4-38.3-32.8c-5.4-10.4-7.3-22.8-4.7-34.2C84.4,118,94.2,104.7,107.6,97.7z"/>
</g>
</svg>
